X: 567
U:~=!turn!
M:C
L:1/8
K:D
[2 cB AB c/2c/2c d || g | fd d/2d/2d Ad d>g | fd d/2d/2d ee g2 | fd d/2d/2d Ad d2 | cB AB c/2c/2c d>d |
fd d/2d/2d Ad d>f | fd d/2d/2d e2 eg | (3agf (3gfe (3fed (3edc | B<A Bc/2c/2 cdd |]


